X: 3
T: Bog An Lochan
R: strathspey
M: 4/4
L: 1/8
K: Edor
|: F | E/E/E E2 E>FB>F | E/E/E E2 F<DA>F |
E/E/E E2 E>FB>A |1 B<dA>d F<DA>F :|2 B<dA<d F<DD>d ||
B<EB>A B<EE>e | B<EB>A F<DD>d |
B<EB>A d>ef>e |1 d/c/B/A/ d>A F<DD>d :|2 d/c/B/A/ d>A F<DD>f ||
e/e/e e2 e>fb>f | e/e/e e2 f>da>f |
e/e/e e2 e>fb>f | g<eb>e df/g/ a>f |
g>eb>e g<eb>e | g<eb>e df/g/ a<f |
g<eb<e d>ef>e | d/c/B/A/ d>A F<DD>d ||
B<EB>A B<EE>e | B<EB>A F<DD>d |
B<EB>A d>ef>e |1 d/c/B/A/ d>A F<DD>A :|2 d/c/B/A/ dA F<DD ||


Tune 1749	Setting 1749

